assets/img/partners/slider-1/austrian.svg

<?xml version="1.0" encoding="UTF-8"?>
<svg width="300px" height="100px" viewBox="0 0 300 100" version="1.1" xmlns="http://www.w3.org/2000/svg" xmlns:xlink="http://www.w3.org/1999/xlink">
    <!-- Generator: Sketch 46.2 (44496) - http://www.bohemiancoding.com/sketch -->
    <title>austrian</title>
    <desc>Created with Sketch.</desc>
    <defs>
        <path d="M20.0103068,5.05272668 C20.0103068,5.05272668 18.6720214,5.30678887 17.7918936,5.48307692 C17.7918936,5.48307692 20.888496,4.96134206 21.874601,6.12212111 C22.9072326,7.33474959 24.4322705,10.378311 12.1447299,21.1921571 C8.07494651,24.7678232 3.52955809,27.9578592 0.0672050606,30.2314566 L8.12922753,28.9242029 C11.8810793,25.344 21.7893023,17.2483601 30.589288,12.6175581 C44.8858723,5.09874304 56.2525743,0.96310311 58.4994205,0.220360065 L58.4994205,0.0907364975 C55.8241421,0.297486088 36.1737701,1.87370867 20.0103068,5.05272668" id="path-1"></path>
        <linearGradient x1="46.4817507%" y1="28.2160057%" x2="52.7063604%" y2="66.6617528%" id="linearGradient-3">
            <stop stop-color="#ED1C24" offset="0%"></stop>
            <stop stop-color="#E91C24" offset="19.7%"></stop>
            <stop stop-color="#E11B22" offset="35.14%"></stop>
            <stop stop-color="#D41920" offset="49.13%"></stop>
            <stop stop-color="#C3151C" offset="62.18%"></stop>
            <stop stop-color="#B01116" offset="72.47%"></stop>
            <stop stop-color="#B01116" offset="100%"></stop>
        </linearGradient>
        <linearGradient x1="0.00266910699%" y1="49.9984087%" x2="100.004957%" y2="49.9984087%" id="linearGradient-4">
            <stop stop-color="#ED1C24" offset="10.65%"></stop>
            <stop stop-color="#E61B23" offset="19.06%"></stop>
            <stop stop-color="#D91921" offset="30.52%"></stop>
            <stop stop-color="#C3151C" offset="43.7%"></stop>
            <stop stop-color="#B61318" offset="50.19%"></stop>
            <stop stop-color="#8A0304" offset="70.21%"></stop>
            <stop stop-color="#790000" offset="77.95%"></stop>
        </linearGradient>
    </defs>
    <g id="Page-1" stroke="none" stroke-width="1" fill="none" fill-rule="evenodd">
        <g id="austrian">
            <g id="Austrian_Airlines_Logo_(2013)" transform="translate(39.000000, 33.000000)">
                <g id="Group" fill="#ED1C24">
                    <path d="M160.842055,12.9756923 C158.771037,13.6836923 156.584247,14.2061538 154.147539,14.5716923 L154.039118,14.5883077 L154.039118,15.3664615 L154.157646,15.3766154 C156.799251,15.5686154 157.520524,16.4972308 157.520524,19.6966154 L157.520524,27.2843077 C157.520524,32.9353846 157.520524,33.9535385 154.266066,33.9535385 L153.940804,33.9535385 L153.940804,34.9089231 L165.240443,34.9089231 L165.240443,33.9535385 L164.911506,33.9535385 C161.700232,33.9535385 161.606513,33.0046154 161.606513,27.2843077 L161.606513,20.6390769 C161.606513,19.0366154 161.688288,17.6113846 162.671424,16.4224615 C163.721635,15.1707692 165.283627,14.4203077 166.852052,14.4203077 C169.738063,14.4203077 171.203579,16.3772308 171.203579,20.2412308 L171.203579,27.2852308 C171.203579,33.0046154 171.113535,33.9544615 167.949122,33.9544615 L167.620185,33.9544615 L167.620185,34.9098462 L178.920742,34.9098462 L178.920742,33.9544615 L178.593642,33.9544615 C175.390638,33.9544615 175.288649,32.8966154 175.288649,27.2852308 L175.288649,20.1904615 C175.288649,15.5723077 173.362804,12.8603077 168.436096,12.8603077 C165.655749,12.8603077 163.650886,13.6107692 161.581705,15.5261538 C161.540358,15.1070769 161.301465,13.1049231 161.301465,13.1049231 L160.882483,12.9646154 L160.842055,12.9756923" id="Shape" fill-rule="nonzero"></path>
                    <path d="M143.595819,28.1132308 L143.595819,22.3347692 C142.744993,22.824 141.941945,23.2467692 141.162786,23.6547692 C137.898221,25.3606154 135.486321,26.7950769 135.486321,30.2206154 C135.486321,32.5144615 137.0281,34.2461538 139.098199,34.2461538 C141.995236,34.2470769 143.595819,32.0196923 143.595819,28.1132308 L143.595819,28.1132308 Z M152.004852,34.2636923 C151.002421,35.1526154 149.631542,35.6566154 148.054849,35.6566154 C145.487668,35.6566154 144.195808,34.9070769 143.51772,33.3129231 C142.065985,35.0215385 140.289908,35.6566154 137.753048,35.6566154 C133.840716,35.6566154 131.198192,33.6064615 131.198192,30.0830769 C131.198192,26.2790769 134.562908,24.4486154 139.131277,23.0326154 L139.47124,22.9283077 C141.76645,22.2175385 143.548959,21.4264615 143.548959,19.4612308 L143.548959,18.4864615 C143.548959,15.5538462 142.207483,14.0141538 139.746886,14.0141538 C137.833904,14.0141538 137.041882,14.9150769 136.805745,16.8747692 C136.684461,17.8956923 136.256292,19.1187692 134.776074,19.1187692 C133.54945,19.1187692 132.758347,18.3812308 132.758347,17.2412308 C132.758347,14.6723077 135.712351,12.8584615 140.098793,12.8584615 C145.486749,12.8584615 147.581657,15.0212308 147.581657,19.4446154 L147.581657,30.2796923 C147.581657,33.1393846 148.055768,34.1492308 149.398162,34.1492308 C150.079007,34.1492308 150.735044,33.9267692 151.405782,33.4356923 L152.004852,34.2636923 Z" id="Shape"></path>
                    <path d="M21.510476,21.5750769 L9.87454982,21.5750769 L8.95481181,23.8809231 C7.83477122,26.6944615 7.14565683,29.1793846 7.14198155,30.5289231 C7.13371218,32.6806154 8.65435793,33.6258462 11.58631,34.0236923 L11.58631,34.9070769 L0.00183763838,34.9070769 L0.00183763838,33.9886154 C3.43454613,33.7883077 4.99561993,29.4304615 8.74899631,20.232 L16.9292435,0.190153846 L18.0088561,0.190153846 L28.3189262,25.632 C30.4680443,30.9341538 31.6018672,33.888 34.8361107,33.9895385 L34.8361107,34.908 L20.7781771,34.908 L20.7781771,33.9895385 C23.5153395,33.8418462 24.9422657,33.0803077 24.9496162,31.3781538 C24.9505351,30.4809231 24.4800996,29.124 23.7156421,27.1818462 L21.510476,21.5750769 L21.510476,21.5750769 Z M10.4148155,20.22 L20.9766421,20.22 L15.7292657,6.88707692 L10.4148155,20.22 Z" id="Shape" fill-rule="nonzero"></path>
                    <path d="M55.9331181,13.6089231 L48.3932878,13.6089231 L48.3932878,14.5643077 L48.7709225,14.5643077 C51.9252288,14.5643077 52.0253801,15.6147692 52.0253801,21.1846154 L52.0253801,27.5298462 C52.0253801,29.5190769 51.9472804,30.9129231 50.9117712,32.1443077 C49.8615609,33.3996923 48.2995683,34.2 46.7311439,34.2 C43.8414576,34.2 42.3805351,32.1913846 42.3805351,28.332 L42.3805351,13.6089231 L34.6642915,13.6089231 L34.6642915,14.5643077 L35.0400886,14.5643077 C38.1962325,14.5643077 38.2963838,15.6147692 38.2963838,21.1846154 L38.2963838,28.1464615 C38.2963838,32.9732308 40.3407565,35.6556923 45.3529151,35.6556923 C48.1755277,35.6556923 50.0646199,34.8064615 52.0262989,33.0212308 L52.0262989,35.4212308 L53.2060627,35.2513846 C55.2927011,34.9513846 57.2635683,34.6661538 59.1848192,34.452 L59.2969151,34.4381538 L59.2969151,33.6544615 L59.1802251,33.6461538 C56.731572,33.4569231 56.0626716,32.5403077 56.0626716,29.3750769 L56.0626716,13.6089231 L55.9331181,13.6089231" id="Shape" fill-rule="nonzero"></path>
                    <path d="M64.1124465,18.7264615 C64.1124465,22.6310769 67.3071808,23.9298462 70.7086494,25.8323077 C72.9965092,27.1264615 74.6292509,28.5055385 74.6292509,30.6710769 C74.6292509,32.8144615 73.1692472,34.3467692 70.9760258,34.3467692 C67.7362694,34.3467692 65.8150185,32.6593846 64.5286716,27.8492308 L64.5038635,27.7532308 L63.8312878,27.7532308 L63.8312878,35.3058462 L64.4735424,35.3058462 L64.5102952,35.2513846 C65.0046199,34.5535385 65.4199262,34.2553846 65.898631,34.2553846 C66.1209852,34.2553846 66.462786,34.4132308 66.9001439,34.6116923 C67.8116125,35.0270769 69.2955055,35.6556923 71.2728044,35.6556923 C75.457107,35.6556923 78.3697638,32.8910769 78.3697638,29.076 C78.3697638,27.2270769 77.6540037,25.7944615 76.4439188,24.5741538 C75.3440923,23.4627692 73.6387638,22.4861538 71.7257823,21.4643077 C69.0336421,19.9836923 67.2529705,19.0513846 67.2529705,16.9283077 C67.2529705,15.1476923 68.6982731,14.064 70.5671513,14.064 C73.195893,14.064 75.1456273,15.9821538 75.9165166,19.6107692 L75.9394871,19.7113846 L76.6184945,19.7113846 L76.6184945,13.2083077 L75.9578635,13.2083077 L75.9229483,13.2858462 C75.6941624,13.8406154 75.4350554,14.0556923 74.9967786,14.0556923 C74.7780996,14.0556923 74.4473247,13.9098462 74.0265055,13.7252308 C73.195893,13.3596923 71.9067897,12.8575385 70.3668487,12.8575385 C66.7963173,12.8584615 64.1124465,15.3212308 64.1124465,18.7264615" id="Shape" fill-rule="nonzero"></path>
                    <path d="M95.9651513,33.8898462 C94.8432731,35.0621538 93.2693358,35.6566154 91.2681476,35.6566154 C87.2942546,35.6566154 85.4198635,33.8446154 85.4198635,30.3203077 C85.4198635,27.0166154 85.610059,14.8670769 85.610059,14.8670769 L82.8811661,14.8670769 L82.8811661,13.6698462 L82.9895867,13.6523077 C85.8636531,13.1704615 87.439428,11.5264615 88.6109225,7.89969231 L88.6375683,7.81107692 L89.5288229,7.81107692 L89.6556199,7.81107692 L89.6060037,13.6089231 L95.0941107,13.6089231 L95.0941107,14.8661538 L89.6041661,14.8661538 L89.5058524,28.8516923 L89.5058524,29.4498462 C89.5058524,32.4286154 90.3419779,34.0975385 92.76031,34.0975385 C93.7719299,34.0975385 94.5630332,33.7993846 95.2843063,33.1033846 L95.9651513,33.8898462" id="Shape" fill-rule="nonzero"></path>
                    <path d="M104.783059,12.9756923 C102.716635,13.6836923 100.528926,14.2061538 98.0885424,14.5716923 L97.9801218,14.5883077 L97.9801218,15.3664615 L98.0986494,15.3766154 C100.740255,15.5686154 101.463365,16.4972308 101.463365,19.6966154 L101.463365,27.2843077 C101.463365,32.9353846 101.463365,33.9535385 98.2089077,33.9535385 L97.8799705,33.9535385 L97.8799705,34.9089231 L109.729982,34.9089231 L109.729982,33.9535385 L109.302731,33.9535385 C107.386993,33.9535385 106.547192,33.6498462 106.095133,32.796 C105.588863,31.8406154 105.549354,30.0526154 105.549354,27.4338462 L105.549354,23.1341538 C105.549354,18.1292308 107.438446,14.868 109.203498,14.868 C110.056162,14.868 110.466875,15.3904615 110.902395,16.0569231 C111.368236,16.7649231 111.895638,17.5661538 113.034055,17.5661538 C114.211982,17.5661538 115.003085,16.8138462 115.003085,15.6867692 C115.003085,13.9495385 113.486114,12.8593846 111.243277,12.8593846 C108.869967,12.8593846 106.840295,14.1036923 105.450122,16.9301538 C105.438177,15.3433846 105.37386,14.3215385 105.251657,13.1833846 L105.243387,13.1030769 L104.826244,12.9627692 L104.783059,12.9756923" id="Shape" fill-rule="nonzero"></path>
                    <path d="M119.418011,4.76584615 C119.418011,6.17169231 120.434225,7.19353846 121.836343,7.19353846 C123.257756,7.19353846 124.252838,6.19476923 124.252838,4.76584615 C124.252838,3.47446154 123.12269,2.33723077 121.836343,2.33723077 C120.548159,2.33723077 119.418011,3.47446154 119.418011,4.76584615" id="Shape" fill-rule="nonzero"></path>
                    <path d="M123.789753,12.9544615 C121.567129,13.584 119.247111,14.0898462 116.491572,14.5541538 L116.386827,14.5716923 L116.386827,15.3498462 L116.505354,15.3581538 C119.146041,15.5510769 119.868232,16.4796923 119.868232,19.6763077 L119.868232,27.2815385 C119.868232,32.9326154 119.868232,33.9526154 116.613775,33.9526154 L116.285756,33.9526154 L116.285756,34.908 L127.586314,34.908 L127.586314,33.9526154 L127.261052,33.9526154 C124.045185,33.9526154 123.954221,33.0036923 123.954221,27.2815385 L123.954221,12.9092308 L123.789753,12.9544615" id="Shape" fill-rule="nonzero"></path>
                </g>
                <g id="Group" transform="translate(190.195572, 4.615385)">
                    <g id="Clipped">
                        <mask id="mask-2" fill="white">
                            <use xlink:href="#path-1"></use>
                        </mask>
                        <g id="SVGID_1_"></g>
                        <polygon id="Shape" fill="url(#linearGradient-3)" fill-rule="nonzero" mask="url(#mask-2)" points="55.9734149 -11.8281506 64.6099114 28.9287398 2.59321066 42.1496956 -6.04522444 1.39280524"></polygon>
                    </g>
                    <path d="M17.7918936,5.48307692 L5.37834346,8.27840917 L5.36089599,8.28359411 L5.3382789,8.30433388 L5.36089599,8.327018 L5.38286687,8.33025859 L12.7366514,9.43918822 C17.3298588,7.29910311 20.3282384,6.64644845 22.2855858,6.73135188 C22.2836472,6.72811129 22.2823548,6.72422259 22.27977,6.72033388 C22.2784776,6.71968576 22.2771852,6.71709329 22.2771852,6.71450082 C22.2739542,6.70737152 22.2713694,6.7028347 22.2681384,6.6957054 C22.266846,6.6957054 22.266846,6.6957054 22.266846,6.6957054 C22.2636149,6.68727987 22.2610301,6.68274304 22.2571529,6.67626187 C22.2571529,6.67626187 22.2558605,6.67366939 22.2552143,6.67107692 C22.1414827,6.4559018 22.0077187,6.27961375 21.8804169,6.12989853 C21.877832,6.12730606 21.8758934,6.12341735 21.8733086,6.12212111 C21.6768631,5.89074304 21.3964112,5.72612111 21.0726637,5.61140426 C20.5434239,5.42215385 19.9004524,5.36641571 19.3214549,5.36641571 C18.4878537,5.36641571 17.7918936,5.48307692 17.7918936,5.48307692" id="Shape" fill="url(#linearGradient-4)" fill-rule="nonzero"></path>
                </g>
            </g>
        </g>
    </g>
</svg>

<svg width="300" height="100" xmlns="http://www.w3.org/2000/svg" xmlns:xlink="http://www.w3.org/1999/xlink"><defs><path d="M20.01 5.053s-1.338.254-2.218.43c0 0 3.096-.522 4.083.64 1.032 1.212 2.557 4.255-9.73 15.07C8.075 24.767 3.53 27.957.067 30.23l8.062-1.307c3.752-3.58 13.66-11.676 22.46-16.306C44.886 5.098 56.253.963 58.5.22V.09c-2.676.208-22.326 1.785-38.49 4.964" id="path-1"/><linearGradient x1="46.482%" y1="28.216%" x2="52.706%" y2="66.662%" id="linearGradient-3"><stop stop-color="#ED1C24" offset="0%"/><stop stop-color="#E91C24" offset="19.7%"/><stop stop-color="#E11B22" offset="35.14%"/><stop stop-color="#D41920" offset="49.13%"/><stop stop-color="#C3151C" offset="62.18%"/><stop stop-color="#B01116" offset="72.47%"/><stop stop-color="#B01116" offset="100%"/></linearGradient><linearGradient x1=".003%" y1="49.998%" x2="100.005%" y2="49.998%" id="linearGradient-4"><stop stop-color="#ED1C24" offset="10.65%"/><stop stop-color="#E61B23" offset="19.06%"/><stop stop-color="#D91921" offset="30.52%"/><stop stop-color="#C3151C" offset="43.7%"/><stop stop-color="#B61318" offset="50.19%"/><stop stop-color="#8A0304" offset="70.21%"/><stop stop-color="#790000" offset="77.95%"/></linearGradient></defs><g id="Page-1" fill="none" fill-rule="evenodd"><g id="austrian"><g id="Austrian_Airlines_Logo_(2013)" transform="translate(39 33)"><g id="Group" fill="#ED1C24"><path d="M160.842 12.976c-2.071.708-4.258 1.23-6.694 1.596l-.109.016v.778l.119.01c2.641.193 3.363 1.121 3.363 4.32v7.588c0 5.651 0 6.67-3.255 6.67h-.325v.955h11.3v-.955h-.33c-3.21 0-3.304-.95-3.304-6.67V20.64c0-1.602.081-3.028 1.064-4.217 1.05-1.251 2.613-2.002 4.181-2.002 2.886 0 4.352 1.957 4.352 5.821v7.044c0 5.72-.09 6.67-3.255 6.67h-.329v.955h11.3v-.956h-.326c-3.203 0-3.305-1.057-3.305-6.669V20.19c0-4.618-1.926-7.33-6.853-7.33-2.78 0-4.785.75-6.854 2.666a303.38 303.38 0 0 0-.28-2.421l-.42-.14-.04.01" id="Shape" fill-rule="nonzero"/><path d="M143.596 28.113v-5.778a69.24 69.24 0 0 1-2.433 1.32c-3.265 1.706-5.677 3.14-5.677 6.566 0 2.293 1.542 4.025 3.612 4.025 2.897.001 4.498-2.226 4.498-6.133zm8.409 6.15c-1.003.89-2.373 1.394-3.95 1.394-2.567 0-3.86-.75-4.537-2.344-1.452 1.709-3.228 2.344-5.765 2.344-3.912 0-6.555-2.05-6.555-5.574 0-3.804 3.365-5.634 7.933-7.05l.34-.105c2.295-.71 4.078-1.502 4.078-3.467v-.975c0-2.932-1.342-4.472-3.802-4.472-1.913 0-2.705.901-2.941 2.86-.122 1.022-.55 2.245-2.03 2.245-1.227 0-2.018-.738-2.018-1.878 0-2.569 2.954-4.383 7.34-4.383 5.389 0 7.484 2.163 7.484 6.587V30.28c0 2.86.474 3.87 1.816 3.87.681 0 1.337-.223 2.008-.714l.599.828z" id="Shape"/><path d="M21.51 21.575H9.875l-.92 2.306c-1.12 2.813-1.81 5.298-1.813 6.648-.008 2.152 1.512 3.097 4.444 3.495v.883H.002v-.918c3.433-.2 4.994-4.559 8.747-13.757L16.929.19h1.08l10.31 25.442c2.149 5.302 3.283 8.256 6.517 8.358v.918H20.778v-.918c2.737-.148 4.164-.91 4.172-2.612 0-.897-.47-2.254-1.234-4.196l-2.206-5.607zM10.415 20.22h10.562L15.729 6.887 10.415 20.22zm45.518-6.611h-7.54v.955h.378c3.154 0 3.254 1.05 3.254 6.62v6.346c0 1.99-.078 3.383-1.113 4.614-1.05 1.256-2.612 2.056-4.18 2.056-2.89 0-4.351-2.009-4.351-5.868V13.609h-7.717v.955h.376c3.156 0 3.256 1.05 3.256 6.62v6.962c0 4.827 2.045 7.51 7.057 7.51 2.823 0 4.712-.85 6.673-2.635v2.4l1.18-.17c2.087-.3 4.058-.585 5.979-.799l.112-.014v-.784l-.117-.008c-2.448-.19-3.117-1.106-3.117-4.27V13.608h-.13m8.179 5.118c0 3.905 3.195 5.204 6.597 7.106 2.288 1.294 3.92 2.674 3.92 4.84 0 2.142-1.46 3.675-3.653 3.675-3.24 0-5.161-1.688-6.447-6.498l-.025-.096h-.673v7.553h.643l.036-.055c.495-.697.91-.996 1.389-.996.222 0 .564.158 1.001.357.912.415 2.396 1.044 4.373 1.044 4.184 0 7.097-2.765 7.097-6.58 0-1.849-.716-3.282-1.926-4.502-1.1-1.111-2.805-2.088-4.718-3.11-2.692-1.48-4.473-2.413-4.473-4.536 0-1.78 1.445-2.864 3.314-2.864 2.629 0 4.579 1.918 5.35 5.547l.022.1h.68v-6.503h-.661l-.035.078c-.229.555-.488.77-.926.77-.219 0-.55-.146-.97-.33-.831-.366-2.12-.868-3.66-.868-3.57 0-6.255 2.463-6.255 5.868M95.965 33.89c-1.122 1.172-2.696 1.767-4.697 1.767-3.974 0-5.848-1.812-5.848-5.337 0-3.303.19-15.453.19-15.453h-2.729V13.67l.109-.018c2.874-.482 4.45-2.126 5.62-5.752l.028-.089h1.018l-.05 5.798h5.488v1.257h-5.49l-.098 13.986v.598c0 2.979.836 4.648 3.254 4.648 1.012 0 1.803-.299 2.524-.995l.681.787m8.818-20.914c-2.066.708-4.254 1.23-6.694 1.596l-.109.016v.778l.119.01c2.641.193 3.364 1.121 3.364 4.32v7.588c0 5.651 0 6.67-3.254 6.67h-.329v.955h11.85v-.955h-.427c-1.916 0-2.756-.304-3.208-1.158-.506-.955-.546-2.743-.546-5.362v-4.3c0-5.005 1.89-8.266 3.654-8.266.853 0 1.264.522 1.7 1.189.465.708.993 1.51 2.131 1.51 1.178 0 1.97-.753 1.97-1.88 0-1.737-1.518-2.828-3.76-2.828-2.374 0-4.404 1.245-5.794 4.071-.012-1.587-.076-2.608-.198-3.747l-.009-.08-.417-.14-.043.013m14.635-8.21c0 1.406 1.016 2.428 2.418 2.428 1.422 0 2.417-1 2.417-2.428 0-1.292-1.13-2.429-2.417-2.429-1.288 0-2.418 1.137-2.418 2.429m4.372 8.188c-2.223.63-4.543 1.136-7.298 1.6l-.105.018v.778l.118.008c2.641.193 3.363 1.122 3.363 4.318v7.606c0 5.65 0 6.67-3.254 6.67h-.328v.956h11.3v-.955h-.325c-3.216 0-3.307-.95-3.307-6.671V12.909l-.164.045" id="Shape" fill-rule="nonzero"/></g><g id="Group" transform="translate(190.196 4.615)"><g id="Clipped"><mask id="mask-2" fill="#fff"><use xlink:href="#path-1"/></mask><path id="Shape" fill="url(#linearGradient-3)" fill-rule="nonzero" mask="url(#mask-2)" d="M55.973-11.828l8.637 40.757-62.017 13.22-8.638-40.756z"/></g><path d="M17.792 5.483L5.378 8.278l-.017.006-.023.02.023.023.022.003 7.354 1.11c4.593-2.14 7.591-2.794 9.549-2.709l-.006-.01c-.002-.001-.003-.004-.003-.006l-.009-.02h-.001a.109.109 0 0 0-.01-.019l-.002-.005a2.984 2.984 0 0 0-.375-.541c-.002-.003-.004-.007-.007-.008-.196-.231-.477-.396-.8-.51-.53-.19-1.173-.246-1.752-.246-.833 0-1.53.117-1.53.117" id="Shape" fill="url(#linearGradient-4)" fill-rule="nonzero"/></g></g></g></g></svg>
